packages/foundations/assets/icons/functional/images/audio & video/skip_backward_24_filled.svg

<svg width="24" height="24" viewBox="0 0 24 24" fill="none" xmlns="http://www.w3.org/2000/svg">
<g clip-path="url(#clip0_2202_570)">
<path fill-rule="evenodd" clip-rule="evenodd" d="M19 16.956V7.044C18.9958 6.50319 18.7791 5.98572 18.3967 5.6033C18.0143 5.22088 17.4968 5.00418 16.956 5C16.557 5 16.158 5.14 15.806 5.376L9.352 10.332C8.812 10.708 8.507 11.342 8.507 12C8.507 12.658 8.812 13.292 9.352 13.668L15.805 18.624C16.158 18.859 16.557 19 16.98 19C18.013 19 19 18.13 19 16.956ZM6.997 17.003V6.973C6.99516 6.71189 6.89056 6.46201 6.70583 6.27747C6.5211 6.09293 6.27111 5.98857 6.01 5.987C5.47 5.987 5 6.433 5 6.973V17.003C5 17.543 5.446 17.99 6.01 17.99C6.55 17.99 6.997 17.544 6.997 17.003Z" fill="#1A1C1F"/>
</g>
<defs>
<clipPath id="clip0_2202_570">
<rect width="24" height="24" fill="white"/>
</clipPath>
</defs>
</svg>

<svg xmlns="http://www.w3.org/2000/svg" width="24" height="24" fill="none"><g clip-path="url(#a)"><path fill="#1A1C1F" fill-rule="evenodd" d="M19 16.956V7.044A2.06 2.06 0 0 0 16.956 5c-.399 0-.798.14-1.15.376l-6.454 4.956c-.54.376-.845 1.01-.845 1.668s.305 1.292.845 1.668l6.453 4.956c.353.235.752.376 1.175.376 1.033 0 2.02-.87 2.02-2.044m-12.003.047V6.973a.993.993 0 0 0-.987-.986c-.54 0-1.01.446-1.01.986v10.03c0 .54.446.987 1.01.987.54 0 .987-.446.987-.987" clip-rule="evenodd"/></g><defs><clipPath id="a"><path fill="#fff" d="M0 0h24v24H0z"/></clipPath></defs></svg>
